!!!SOCIAL_FUNCTION:	love songs
!!!PDT:	1909
!!!OTL: No_163_(love_songs).krn
!!!REG: Great_Lakes
!!!LANG: Non-Tone
!!!LING_GROUP: Algonquin
**kern
*staff1
*clefF4
*k[f#c#g#d#]
*M3/4
8.d#\L
16c#\Jk
=1||
*M2/4
16B\LK
8.B\J
8.B\L
16c#\Jk
=2||
*M3/4
4B\
4A\
8.cn\L
16B\Jk
=3||
*M2/4
16A\LK
8.A\J
8.A\L
16B\Jk
=4
16A\LK
8.B\J
8.B\L
16B\Jk
=5
16A\LK
8.A\J
16A\LK
8.B\J
=6
12A\L
12B\
[12A\J
8.A\L]
16E\Jk
=7
2E\
=8
12A\L
12B\
12A\J
8.E\L
16E\Jk
=9
8.D#\L
16D#\Jk
4D#\
=10
8.E\L
16D#\Jk
4E\
=11
2E\
=12
4B\
16c#\LK
8.B\J
=13
8B\L
8B\J
8B\L
8B\J
=14||
*M3/4
8.A\L
16E\Jk
4E\
8G#\L
8G#\J
=15||
*M2/4
8.A\L
16E\Jk
[4E\
=16
4E\]
8G#\L
8G#\J
=17
8.A\L
16E\Jk
[4E\
=18
2E\]
==
*-
